icons/unito-logo.svg

<?xml version="1.0" encoding="UTF-8"?>
<svg width="512px" height="163px" viewBox="0 0 512 163" version="1.1" xmlns="http://www.w3.org/2000/svg" xmlns:xlink="http://www.w3.org/1999/xlink" preserveAspectRatio="xMidYMid">
    <g>
        <path d="M209.961425,92.3903926 C209.961425,97.3342962 209.961425,103.514176 213.514856,108.303582 C216.768891,112.035977 221.545671,114.083168 226.492603,113.865474 C231.433738,114.051681 236.19751,112.010065 239.47035,108.303582 C243.02378,103.668673 243.02378,97.6432902 243.02378,92.3903926 L243.02378,49.4402299 L255.692533,49.4402299 L255.692533,93.9353625 C255.692533,103.050685 254.765551,109.848552 248.894666,116.028432 C242.405792,123.135293 233.599464,125.143754 226.338106,125.143754 C217.898713,125.265886 209.766644,121.979638 203.781545,116.028432 C197.91066,109.539558 196.983678,102.741691 196.983678,93.9353625 L196.983678,49.4402299 L210.115922,49.4402299 L210.115922,92.3903926 M359.978,120.508844 L371.719771,120.508844 L371.719771,47.4317691 L359.978,47.4317691 L359.978,120.508844 Z M366.003383,10.8159829 C370.838163,11.0493029 374.606836,15.0920618 374.500717,19.9313052 C374.606836,24.7705486 370.838163,28.8133075 366.003383,29.0466275 C363.667308,28.9660998 361.459087,27.9601315 359.865227,26.2503542 C358.271367,24.5405769 357.422645,22.2672788 357.506048,19.9313052 C357.422645,17.5953317 358.271367,15.3220336 359.865227,13.6122563 C361.459087,11.902479 363.667308,10.8965107 366.003383,10.8159829 L366.003383,10.8159829 Z M413.124964,58.5555522 L413.124964,120.508844 L400.765205,120.508844 L400.765205,58.5555522 L393.040356,58.5555522 L393.040356,46.6592841 L400.765205,46.6592841 L400.765205,20.0858022 L413.124964,20.0858022 L413.124964,46.6592841 L425.484723,46.6592841 L425.484723,58.5555522 L413.124964,58.5555522 M275.622645,122.053814 L275.622645,77.5586817 C275.622645,68.4433594 276.549627,61.645492 282.420512,55.4656125 C288.909386,48.358751 297.715714,46.3502902 304.977072,46.3502902 C313.416465,46.2281586 321.548534,49.5144057 327.533633,55.4656125 C333.404518,61.954486 334.3315,68.7523534 334.3315,77.5586817 L334.3315,122.053814 L321.662747,122.053814 L321.662747,79.1036516 C321.662747,74.159748 321.662747,67.9798685 318.109316,63.1904619 C314.855281,59.4580672 310.078501,57.4108758 305.131569,57.6285703 C300.190434,57.442363 295.426662,59.4839795 292.153822,63.1904619 C288.600392,67.9798685 288.600392,73.850754 288.600392,79.1036516 L288.600392,122.053814 L275.622645,122.053814 L275.622645,122.053814 Z M447.732289,85.1290341 C447.732289,103.359679 460.246545,112.475001 473.224292,112.475001 C486.202039,112.475001 498.716295,103.050685 498.716295,85.1290341 C498.716295,66.8983896 486.511033,57.7830673 473.224292,57.7830673 C459.937551,57.7830673 447.732289,67.2073835 447.732289,85.1290341 L447.732289,85.1290341 Z M434.754542,85.1290341 C434.754542,62.8814679 450.976726,46.3502902 473.378789,46.3502902 C495.780853,46.3502902 512.003036,62.7269709 512.003036,85.1290341 C512.003036,107.531097 495.471859,123.598784 473.378789,123.598784 C451.28572,123.907778 434.754542,107.531097 434.754542,85.1290341 Z" fill="#0C0C0C"></path>
        <path d="M129.622991,78.1766697 L129.468494,96.7163082 C129.462422,98.6168649 127.967971,100.179246 126.06956,100.269739 C124.17115,100.179246 122.676699,98.6168649 122.670627,96.7163082 L122.825124,78.1766697 C122.825124,67.5962047 114.247962,59.0190432 103.667497,59.0190432 C94.0886839,59.0190432 85.5913495,67.3618805 84.8188646,77.7131787 L84.8188646,78.4856637 L84.5098706,85.5925251 L84.5098706,86.0560161 C84.4270759,95.3290209 79.4034813,103.85346 71.3314262,108.41826 C63.259371,112.983061 53.3651926,112.89472 45.3759322,108.186515 C37.3866717,103.47831 32.516088,94.86553 32.5988827,85.5925251 C32.6412017,85.5975587 32.6834919,85.5829074 32.7136269,85.5527724 C32.7437619,85.5226374 32.7584132,85.4803472 32.7533797,85.4380281 L32.5988827,85.4380281 L32.5988827,67.6708745 C32.6151204,66.7939565 32.9791262,65.9594236 33.610789,65.3509411 C34.2424518,64.7424585 35.0900047,64.4098936 35.966917,64.4264378 C36.8438812,64.401505 37.6947987,64.7261451 38.3322992,65.3288729 C38.9697998,65.9316007 39.3416074,66.7629916 39.3658507,67.6399751 L39.2113538,85.4071287 C39.2113538,95.9875937 47.7885153,104.564755 58.3689803,104.564755 C68.9494452,104.564755 77.5266068,95.9875937 77.5266068,85.4071287 L77.5266068,84.7891408 L77.8356007,78.3002673 L77.8356007,77.5277823 C78.7934821,63.4994558 90.0717622,52.3756727 103.513,52.3756727 C117.886956,52.4267852 129.502687,64.1116575 129.468494,78.4856637 C129.622991,78.0221727 129.622991,78.0221727 129.622991,78.1766697 L129.622991,78.1766697 Z M81.4199309,0.000594794104 C36.6240845,-0.169132004 0.171739308,36.006885 0.000596302995,80.8027306 C-0.16934567,125.598576 36.006495,162.051096 80.8023398,162.222458 C125.598185,162.392615 162.05088,126.21695 162.222007,81.4211064 L162.222007,81.1121125 C162.307276,36.413123 126.149784,0.10347645 81.4508303,0.000594794104 L81.4199309,0.000594794104 Z" fill="#3AAFA9"></path>
    </g>
</svg>

<svg xmlns="http://www.w3.org/2000/svg" viewBox="0 0 512.003 162.223">
  <path fill="#0c0c0c" d="M209.961 92.39c0 4.944 0 11.124 3.554 15.914a16.268 16.268 0 0 0 12.978 5.561 16.485 16.485 0 0 0 12.977-5.561c3.554-4.635 3.554-10.66 3.554-15.914V49.44h12.669v44.495c0 9.116-.927 15.914-6.798 22.093-6.49 7.107-15.296 9.116-22.557 9.116a31.347 31.347 0 0 1-22.556-9.116c-5.871-6.488-6.798-13.286-6.798-22.093V49.44h13.132v42.95m149.862 28.119h11.742V47.432h-11.742zm6.025-109.693a8.93 8.93 0 0 1 8.498 9.115 8.93 8.93 0 0 1-8.498 9.116 8.806 8.806 0 0 1-8.497-9.116 8.806 8.806 0 0 1 8.497-9.115zm47.122 47.74v61.953h-12.36V58.556h-7.725V46.659h7.725V20.086h12.36v26.573h12.36v11.897h-12.36m-137.502 63.498V77.559c0-9.116.927-15.914 6.798-22.093 6.488-7.107 15.295-9.116 22.556-9.116a31.347 31.347 0 0 1 22.557 9.116c5.87 6.488 6.797 13.286 6.797 22.093v44.495h-12.668v-42.95c0-4.944 0-11.124-3.554-15.914a16.269 16.269 0 0 0-12.977-5.561 16.485 16.485 0 0 0-12.978 5.561c-3.554 4.79-3.554 10.66-3.554 15.914v42.95zm172.11-36.925c0 18.23 12.514 27.346 25.491 27.346 12.978 0 25.492-9.424 25.492-27.346 0-18.23-12.205-27.346-25.492-27.346-13.286 0-25.492 9.424-25.492 27.346zm-12.978 0c0-22.248 16.222-38.779 38.624-38.779s38.624 16.377 38.624 38.779c0 22.402-16.531 38.47-38.624 38.47-22.093.309-38.624-16.068-38.624-38.47z"/>
  <path fill="#3aafa9" d="m129.623 78.177-.155 18.54a3.569 3.569 0 0 1-3.398 3.553 3.569 3.569 0 0 1-3.4-3.554l.155-18.54c0-10.58-8.577-19.157-19.158-19.157-9.578 0-18.076 8.343-18.848 18.694v.773l-.31 7.107v.463a25.957 25.957 0 0 1-51.91-.463.14.14 0 0 0 .154-.155H32.6V67.671a3.306 3.306 0 0 1 3.368-3.245 3.306 3.306 0 0 1 3.399 3.214l-.155 17.767c0 10.58 8.578 19.158 19.158 19.158 10.58 0 19.158-8.577 19.158-19.158v-.618l.309-6.489v-.772c.957-14.029 12.236-25.152 25.677-25.152 14.374.05 25.99 11.736 25.955 26.11.155-.464.155-.464.155-.31zM81.42 0C36.624-.17.172 36.007 0 80.803c-.17 44.796 36.006 81.248 80.802 81.42 44.796.17 81.249-36.006 81.42-80.802v-.309C162.307 36.413 126.15.103 81.451.001z"/>
</svg>
